dist/img/footer/icons/facebook.svg

<svg width="50" height="51" viewBox="0 0 50 51" fill="none" xmlns="http://www.w3.org/2000/svg">
<path d="M24.9988 50.5C18.0906 50.5 11.8225 47.7262 7.33576 43.1747C2.77778 38.6932 0 32.4351 0 25.5356C0 18.6372 2.77778 12.378 7.33576 7.82532C11.8225 3.27382 18.0906 0.5 24.9988 0.5C31.9082 0.5 38.1752 3.27382 42.7332 7.82532C47.2211 12.3768 50 18.6372 50 25.5356C50 32.4351 47.2211 38.6932 42.7332 43.1747C38.174 47.7262 31.9071 50.5 24.9988 50.5ZM22.2211 21.7656H18.517V26.3894H22.2211V37.627H26.8515V26.3894H31.4807V21.7656H26.8515V19.4187C26.8515 18.636 27.2778 17.9956 27.7754 17.9956H31.4807V13.4441H27.7754C24.7126 13.4441 22.2211 16.1468 22.2211 19.4899V21.7656Z" fill="white"/>
</svg>

<svg width="50" height="51" fill="none" xmlns="http://www.w3.org/2000/svg"><path d="M24.999 50.5c-6.908 0-13.176-2.774-17.663-7.325C2.778 38.693 0 32.435 0 25.535a24.928 24.928 0 0 1 7.336-17.71C11.822 3.274 18.09.5 24.999.5c6.91 0 13.176 2.774 17.734 7.325A25.161 25.161 0 0 1 50 25.535c0 6.9-2.779 13.158-7.267 17.64A24.997 24.997 0 0 1 25 50.5ZM22.22 21.766h-3.704v4.623h3.704v11.238h4.63V26.389h4.63v-4.623h-4.63v-2.347c0-.783.427-1.423.924-1.423h3.706v-4.552h-3.706c-3.062 0-5.554 2.703-5.554 6.046v2.276Z" fill="#fff"/></svg>
